packages/icons/src/__generated__/nav/svg/nav-signinProduct-16-inactive.svg

<svg xmlns="http://www.w3.org/2000/svg" fill="#1652F0" viewBox="0 0 16 16"><path d="m12.912 7.995-6.923-7h9v14h-9l6.923-7Z"/><path d="M5.989 13.395V10.33h-5V5.662h5V2.595l5.6 5.4-5.6 5.4Zm1.066-4.133v1.623l2.997-2.89-2.997-2.89V6.73h-5v2.533h5Z"/></svg>

<svg xmlns="http://www.w3.org/2000/svg" fill="#1652F0" viewBox="0 0 16 16"><path d="M12.923 8 6 1h9v14H6l6.923-7Z"/><path d="M6 13.4v-3.067H1V5.667h5V2.6L11.6 8 6 13.4Zm1.067-4.133v1.623L10.063 8 7.067 5.11v1.623h-5v2.534h5Z"/></svg>
